!!!COM: Johannes Brahms
!!!CNT: Deutscher
!!!TXO: Deutsche
!!!OTL: Ich schell mein Horn ins Jammertal
!!!OPS: Op. 43
!!!ONM: No. 3
!!!LYR: Altdeutsch
!!!ONB: Original key: B Major
!!!ENC: Ayako Kataoka        
!!!EED: Leigh VanHandel
!!!YOR: C.F. Peters, Brahms Lieder fu2r eine Singstimme mit Klavierbegleitung, Band III, ausgabe fu2r tiefere Stimme
!!!ODT: 1868/
!!NB: Vocal melody and text only encoded.
**kern	**silbe
*clefG2	*
*k[f#]	*
*M2/2	*
*MM[adagio]	*
=1-	=1-
{1g	{Ich
=2	=2
2a	schell
2b	mein
=3	=3
1dd	Horn
=4	=4
1cc	ins
=5	=5
2dd	Jam-
2b	-mer-
=6	=6
1a}	-tal,}
=7	=7
{1cc	{mein
=8	=8
2dd	Freud
2b	ist
=9	=9
2a	mir
2b	ver-
=10	=10
1g	-schwun-
=11	=11
1f#}	-den,}
=12	=12
{1g	{ich
=13	=13
2a	hab
2b	ge-
=14	=14
1dd}	-jagt,}
=15	=15
{1cc	{muss
=16	=16
2dd	a-
2b	-be-
=17	=17
1a}	-lahn,}
=18	=18
{1cc	{das
=19	=19
2dd	Wild
2b	lauft
=19	=19
2a	vor
2b	den
=20	=20
1g	Hun-
=21	=21
1f#}	-den.}
=22	=22
{1dd	{Ein
=21	=23
2b	e-
2cc	-del
=23	=24
1b	Tier
=24	=25
1dd	in
=25	=26
2b	dei-
2cc	-sem
=27	=27
1b}	Feld}
=28	=28
{1cc#	{hatt
=29	=29
2dd	ich
2cc#	mir
=30	=30
2dd	aus-
2b	-er-
=31	=31
1a	-ko-
=32	=32
1a}	-ren,}
=33	=33
{1g	{das
=34	=34
2a	schied
2b	von
=35	=35
1dd}	mir,}
=36	=36
{1cc	{als
=37	=37
2dd	ich
2b	wohl
=38	=38
1a}	spu2r,}
=39	=39
{1cc	{mein
=40	=40
2dd	Ja-
2b	-gen
=41	=41
2a	ist
2b	ver-
=42	=42
(2cc	-lo
2b	|
=43	=43
2a	|
[2g	|
=44	=44
4g]	|
4f#	|
2g	|
=45	=45
1a)	|
=46	=46
1g}	-ren.}
*-	*-
